X:1
T:[Audiveris detected movement]
T:N°37. HERE’S THE SUMMER, SPRIGHTLY, GAY.
T:from THE FAIRY QUEEN
T:HENRY PURCELL
T:14056
T:14056
Z:14056
%%score 1 { ( 2 4 ) | ( 3 5 ) }
L:1/8
Q:3/8=60
M:3/8
K:D
V:1 treble nm="Alto" snm="A."
V:2 treble nm="Piano"
V:4 treble 
V:3 bass 
V:5 bass 
V:1
"^\n" z3 | z3 | z3 | z3 | z3 | z3 | z3 |1 z3 :|2 z3 || z3 | z3 | z3 | z3 |[K:D] z3 | z3 | z3 | z3 | %17
w: |||||||||||||||||
 z3 | z3 | z3 | z3 | z3 | z3 | z3 | z3 |:"^Song (Alto). HERE’S THE SUMMER, SPRIGHTLY, GAY." A2 F | %26
w: ||||||||Here‘s the|
 B2 B | (c/d/e)A | d3 | (d/c/B/c/)B | A2 F | (G/F/E/F/) (E/D/) |1 A3 :|2 A2 e || (c/d/c)A | %35
w: Sum- mer|spright- * * 1y,|gay,|Smil- * * * ing,|wan- ton,|fresh _ _ _ and *|fair;|fair A-|dorn'd * * with|
 (A/B/A)F | (F/G/F)B | ^G2 B | (e/d/c) (B/A/) | (^G/A/B)A | (A/B/c) (B/A/) | A2 c | (d/e/d)A | %43
w: all _ _ the|f1ow’rs * * of|May, Whose|va- * * rious *|sweets * * per-|fume * * the *|air; A-|dorn’d * * with|
 (A/B/A)F | (F/G/F)B | E2 A | (F/E/D)B | (A/G/F)d | (c/B/A)c | d3 |] %50
w: a11 _ _ the|f1ow‘rs * * of|May, Whose|va- * * rious|sweets * * per-|fume * * the|air.|
V:2
 [FA]2 [DF] | [DB]2 [GB] | [Ec]/[Fd]/[Ge]A | d3 | d/c/B/c/B | A2 F | %6
 [EG]/[DF]/[CE]/[DF]/[CE]/[B,D]/ |1 [CA]3 :|2 [CA]2 [ce] || [Ac]/[Bd]/[Ac][FA] | %10
 [FA]/[GB]/[FA][DF] | [DF]/[EG]/[DF][DB] | [B,^G]2 [GB] |[K:D] [ce]/[Bd]/[Ac][^GB]/[FA]/ | %14
 ^G/A/BA | A/B/cB/A/ | A2 c | d/e/dA | A/B/AF | F/G/FB | E2 A | F/E/DB | A/G/Fd | c/B/Ac | d3 |: %25
 [A,F]2 [A,D] | [G,D]2 [B,G] | E/F/GA | F2 G | A2 G | G/F/E/F/E/D/ | E/D/C/D/!tenuto!C/B,/ |1 %32
 C3 :|2 C2 c || A/B/AF | F/G/FD | D/E/DD | B,2 ^G | c/B/A^G/F/ | E/F/E/D/C/D/ | C/D/ED | C2 E | %42
 AB/A/G/F/ | EF/E/D | D/E/DE | C2 F | D/C/B,/C/D/E/ | F/E/D/E/F/G/ | A/G/FE/D/ | D3 |] %50
V:3
 D2 D, | G,2 E, | A,2 F, | B,=C/B,/A,/G,/ | F,2 G, | C,2 D, | z2 ^G, |1 [A,,A,]3 :|2 [A,,A,]2 z || %9
 [A,,A,]3 | [D,A,]3 | B,2 F, | E,3 |[K:D] [C,E,]2 [D,F,] | [E,^G,]2 [A,,A,] | [E,A,]2 .[E,,^G,] | %16
 [A,,A,]2 A, | F,2 D, | C,2 D, | B,,2 G,, | A,,2 F,, | B,,2 G,, | D,2 [B,,D,] | E,F,G, | F,3 |: %25
 D,2 D,, | G,,2 E,, | A,,2 F,, | B,,=C,/B,,/A,,/G,,/ | F,,2 G,, | ^C,,2 D,, | B,,,2 B,, |1 A,,3 :|2 %33
 A,,2 z || A,,3 | D,3 | B,,3 | E,3 | C,2 D, | E,2 A,, | E,,3 | A,,2 A, | F,2 D, | C,2 D, | %44
 B,,2 G,, | A,,2 F,, | B,,2 G,, | D,2 B,, | A,,3 | D,3 |] %50
V:4
 x3 | x3 | x2 A | F2 G | A2 G | G/F/E/F/E/D/ | x3 |1 x3 :|2 x3 || x3 | x3 | x3 | x3 |[K:D] x3 | %14
 E/F/E/D/C/D/ | C/D/ED | C2 E | AB/A/G/F/ | EF/E/[DF] | D/E/DE | C2 F | D/C/B,/C/D/E/ | %22
 F/E/D/E/F/G/ | A/G/FE/D/ | D3 |: x3 | x3 | A,>B,C | DE/D/=C/B,/ | A,DD | EA,A, | B,F,^G, |1 %32
 A,/=G,/[I:staff +1]F,/G,/F,/E,/ :|2[I:staff -1] A,/B,/C/[I:staff +1]B,/A,/B,/ ||[I:staff -1] CEC | %35
 A,DB, | F,B,F, | ^G,B,E | E>A,B, | B,^G,A, | A,[I:staff +1]E,[I:staff -1]^G, | A,E/D/C/B,/ | %42
 A,DD | A,2 A, | B,2 B, | A,/B,/C/B,/A, | B,[I:staff +1]F,[I:staff -1]B, | DA,D | ECA, | F,3 |] %50
V:5
 x3 | x3 | x3 | x3 | x3 | x3 | B,,3 |1 x3 :|2 x3 || x3 | x3 | B,,3 | E,3 |[K:D] x3 | x3 | x3 | x3 | %17
 x3 | x3 | x3 | x3 | x3 | x3 | A,,3 | D,3 |: x3 | x3 | x3 | x3 | x3 | x3 | x3 |1 x3 :|2 x3 || x3 | %35
 x3 | x3 | x3 | x3 | x3 | x3 | x3 | x3 | x3 | x3 | x3 | x3 | x3 | x3 | x3 |] %50

